!!!!SEGMENT: pl-wn--mus-245_zelenski-wladyslaw--dobra-noc.krn
!!!cenid: 18xx:3653
!!!COM: Żeleński, Władysław
!!!COM-rismID: pe41024455
!!!CDT: 1837/07/06-1921/01/23
!!!CNT: Polish
!!!OTL: Dobra noc
!!!PDT:
!!!AGN:
!!!SMS-siglum: PL-Wn
!!!SMS-shelfmark: Mus.245
!!!SMS-shelfwork: W
!!!SMS-variant:
!!!SMS-altvar:
!!!NIFC-rismSourceID:
!!!NIFC-rismChildID:
!!!NIFC-islandoraID:
!!!URL-pdf-islandora:
!!!URL-scan: https://polona.pl/item/dobra-noc-na-3-glosy-zenskie-z-towarzyszeniem-fortepianu,NjYxODg3OTc/1 @EN{Scan on Polona} @PL{Skany w portalu Polona}
!!!ONB-nifc:
!!!AIN: 2 empty 1 forte
!!!key: E-
**kern	**kern	**dynam	**kern	**text	**text	**dynam	**kern	**text	**text	**dynam
*part3	*part3	*part3	*part2	*part2	*part2	*part2	*part1	*part1	*part1	*part1
*staff4	*staff3	*	*staff2	*staff2	*staff2	*	*staff1	*staff1	*staff1	*
*Iforte	*Iempty	*	*Iempty	*	*	*	*Iempty	*	*	*
*I"Fortepian	*	*	*I"Śpiew	*	*	*	*I"Śpiew	*	*	*
*I'Pf.	*	*	*I'V.	*	*	*	*I'V.	*	*	*
*ICklav	*	*	*ICvox	*	*	*	*ICvox	*	*	*
*clefF4	*clefG2	*	*clefG2	*	*	*	*clefG2	*	*	*
*k[b-e-a-]	*k[b-e-a-]	*	*k[b-e-a-]	*	*	*	*k[b-e-a-]	*	*	*
*E-:	*E-:	*	*E-:	*	*	*	*E-:	*	*	*
*M4/4	*M4/4	*	*M4/4	*	*	*	*M4/4	*	*	*
*met(c)	*met(c)	*	*met(c)	*	*	*	*met(c)	*	*	*
*	*	*above	*	*	*	*below	*	*	*	*
*>[A,B,B,C]	*	*	*	*	*	*	*	*	*	*
=1	=1	=1	=1	=1	=1	=1	=1	=1	=1	=1
*>A	*	*	*	*	*	*	*	*	*	*
*	*^	*	*	*	*	*	*	*	*	*
*xywh-#2:139,774,2880,666	*xywh-#2:139,774,2880,666	*xywh-#2:139,774,2880,666	*	*xywh-#2:206,427,2836,375	*	*	*	*xywh-#2:160,50,2853,548	*	*	*
*	*	*Xtuplet	*	*	*	*	*	*	*	*	*
!	!	!	!	!	!	!	!	!LO:TX:a:i:t=Andante non troppo lento.	!	!	!
[1EE-/	4ryy	12r	p	1r	.	.	.	1r	.	.	.
.	.	12E-</L	.	.	.	.	.	.	.	.	.
.	.	12G</J	.	.	.	.	.	.	.	.	.
!	!LO:TX:a:i:t=P:problem=mixed beam	!	!LO:DY:a	!	!	!	!	!	!	!	!
.	(4B-/	12B-\L	<	.	.	.	.	.	.	.	.
.	.	12E-</	.	.	.	.	.	.	.	.	.
.	.	12G</J	.	.	.	.	.	.	.	.	.
!	!LO:TX:a:i:t=P:problem=mixed beam	!	!	!	!	!	!	!	!	!	!
.	4c/	12c\L	.	.	.	.	.	.	.	.	.
.	.	12E-</	.	.	.	.	.	.	.	.	.
.	.	12A-</J	.	.	.	.	.	.	.	.	.
!	!LO:TX:a:i:t=P:problem=mixed beam	!	!	!	!	!	!	!	!	!	!
.	4B-/	12B-\L	.	.	.	.	.	.	.	.	.
.	.	12E-</	.	.	.	.	.	.	.	.	.
.	.	12G</J	[	.	.	.	.	.	.	.	.
=2	=2	=2	=2	=2	=2	=2	=2	=2	=2	=2	=2
!	!LO:TX:a:i:t=P:problem=mixed beam	!	!LO:DY:a	!	!	!	!	!	!	!	!
!	!	!LO:TX:a:i:rj:t=poco	!	!	!	!	!	!	!	!	!
1EE-/]	4e-/)	12e-\L	<	1r	.	.	.	1r	.	.	.
.	.	12F</	.	.	.	.	.	.	.	.	.
.	.	12A-</J	.	.	.	.	.	.	.	.	.
!	!LO:TX:a:i:t=P:problem=mixed beam	!	!	!	!	!	!	!	!	!	!
.	(4d/	12d\L	.	.	.	.	.	.	.	.	.
.	.	12F</	.	.	.	.	.	.	.	.	.
.	.	12A-</J	.	.	.	.	.	.	.	.	.
!	!LO:TX:a:i:t=P:problem=mixed beam	!	!	!	!	!	!	!	!	!	!
.	4g/	12g\L	.	.	.	.	.	.	.	.	.
.	.	12A-</	.	.	.	.	.	.	.	.	.
.	.	12d\J	.	.	.	.	.	.	.	.	.
!	!LO:TX:a:i:t=P:problem=mixed beam	!	!	!	!	!	!	!	!	!	!
.	4f/	12f\L	.	.	.	.	.	.	.	.	.
.	.	12A-</	.	.	.	.	.	.	.	.	.
.	.	12d\J	.	.	.	.	.	.	.	.	.
=3	=3	=3	=3	=3	=3	=3	=3	=3	=3	=3	=3
!	!LO:TX:a:i:t=P:problem=mixed beam	!	!LO:DY:a	!	!	!	!	!	!	!	!
[1EE-/	4e-/)	12e-\L	.	1r	.	.	.	1r	.	.	.
.	.	12G</	.	.	.	.	.	.	.	.	.
.	.	12B-</J	.	.	.	.	.	.	.	.	.
!	!LO:TX:a:i:t=P:problem=mixed beam	!	!	!	!	!	!	!	!	!	!
.	(4c/	12c\L	.	.	.	.	.	.	.	.	.
.	.	12E-</	.	.	.	.	.	.	.	.	.
.	.	12A-</J	<	.	.	.	.	.	.	.	.
!	!LO:TX:a:i:t=P:problem=mixed beam	!	!	!	!	!	!	!	!	!	!
.	4B-/	12B-\L	.	.	.	.	.	.	.	.	.
.	.	12E-</	.	.	.	.	.	.	.	.	.
.	.	12G</J	.	.	.	.	.	.	.	.	.
!	!LO:TX:a:i:t=P:problem=mixed beam	!	!	!	!	!	!	!	!	!	!
.	4c/	12c\L	.	.	.	.	.	.	.	.	.
.	.	12E-</	.	.	.	.	.	.	.	.	.
.	.	12A-</J	.	.	.	.	.	.	.	.	.
=4	=4	=4	=4	=4	=4	=4	=4	=4	=4	=4	=4
!	!LO:TX:a:i:t=P:problem=mixed beam	!	!	!	!	!	!	!	!	!	!
1EE-/]	4B-/	12B-\L	.	1r	.	.	.	1r	.	.	.
.	.	12E-</	.	.	.	.	.	.	.	.	.
.	.	12G</J	.	.	.	.	.	.	.	.	.
!	!	!	!LO:DY:a	!	!	!	!	!	!	!	!
.	2.ryy	12B-</L	>	.	.	.	.	.	.	.	.
.	.	12G</	.	.	.	.	.	.	.	.	.
.	.	12B-</J	.	.	.	.	.	.	.	.	.
!	!LO:TX:a:i:t=P:problem=mixed beam	!	!	!	!	!	!	!	!	!	!
.	.	12e-\L	.	.	.	.	.	.	.	.	.
.	.	12B-</	.	.	.	.	.	.	.	.	.
.	.	12g\J	.	.	.	.	.	.	.	.	.
!	!LO:TX:a:i:t=P:problem=mixed beam	!	!	!	!	!	!	!	!	!	!
.	.	12e-\L	]	.	.	.	.	.	.	.	.
.	.	12B-</	.	.	.	.	.	.	.	.	.
.	.	12G</J)	.	.	.	.	.	.	.	.	.
!!LO:LB:g=original
=5||	=5||	=5||	=5||	=5||	=5||	=5||	=5||	=5||	=5||	=5||	=5||
*>B	*	*	*	*	*	*	*	*	*	*	*
*	*	*	*	*	*	*	*	*^	*	*	*
*xywh-#2:150,1969,2853,673	*xywh-#2:150,1969,2853,673	*xywh-#2:150,1969,2853,673	*	*xywh-#2:212,1679,2799,419	*	*	*	*xywh-#2:160,1359,2846,443	*xywh-#2:160,1359,2846,443	*	*	*
!	!	!	!	!	!	!	!	!LO:TX:a:t=[segno]	!	!	!	!
[1EE-/	4ryy	12r	.	4r	.	.	.	4r	4ryy	.	.	p
.	.	12E-</L	.	.	.	.	.	.	.	.	.	.
.	.	12G</J	.	.	.	.	.	.	.	.	.	.
!	!LO:TX:a:i:t=P:problem=mixed beam	!	!LO:DY:a	!	!	!	!	!	!	!	!	!
.	4ryy	(12B-\L	<	8e-/	Strzeż	.	.	8b-/	8g\	Bły-	.	.
.	.	12G</	.	.	.	.	.	.	.	.	.	.
!	!	!	!	!	!	!	!LO:DY:a	!	!	!	!	!
.	.	.	.	8e-/	nas	.	<	8b-/	8g\	-szczą	.	.
.	.	12E-</J	.	.	.	.	.	.	.	.	.	.
!	!LO:TX:a:i:t=P:problem=mixed beam	!	!	!	!	!	!	!	!	!	!	!
.	4c/	12c\L	.	4d/	dziat-	.	.	4cc/	4a-\	gwiaz-	.	.
.	.	12D</	.	.	.	.	.	.	.	.	.	.
.	.	12A-</J	.	.	.	.	.	.	.	.	.	.
!	!LO:TX:a:i:t=P:problem=mixed beam	!	!LO:DY:a	!	!	!	!LO:DY:a	!	!	!	!	!
.	[4B-/	12B-\L	[ >	4f/	-ki	.	[ > ]]	4b-/	4a-\	-dki	.	.
.	.	12F</	.	.	.	.	.	.	.	.	.	.
.	.	12A-</J	]	.	.	.	.	.	.	.	.	.
=6	=6	=6	=6	=6	=6	=6	=6	=6	=6	=6	=6	=6
!	!LO:TX:a:i:t=P:problem=mixed beam	!	!	!	!	!	!	!	!	!	!	!
1EE-/]	4B-/])	12B-\L	.	4.e-/	u-	.	.	4.b-/	4.g\	na	.	.
.	.	12E-</	.	.	.	.	.	.	.	.	.	.
.	.	12G</J	.	.	.	.	.	.	.	.	.	.
!	!LO:TX:a:i:t=P:problem=mixed beam	!	!	!	!	!	!	!	!	!	!	!
.	4B-/	12B-\L	.	.	.	.	.	.	.	.	.	.
.	.	12E-</	.	.	.	.	.	.	.	.	.	.
.	.	.	.	8e-/	-tru-	.	.	8b-/	8g\	błę-	.	.
.	.	12G</J	.	.	.	.	.	.	.	.	.	.
!	!LO:TX:a:i:t=P:problem=mixed beam	!	!	!	!	!	!	!	!	!	!	!
.	4e-/	12e-\L	.	4e-/	-dzo-	.	.	4ee-/	4g\	-ki-	.	.
.	.	12G</	.	.	.	.	.	.	.	.	.	.
.	.	12B-</J	.	.	.	.	.	.	.	.	.	.
!	!LO:TX:a:i:t=P:problem=mixed beam	!	!	!	!	!	!	!	!	!	!	!
.	4d/	12d\L	.	4e-/	-ne,	.	.	4dd/	4b-\	-cie,	.	.
.	.	12G</	.	.	.	.	.	.	.	.	.	.
.	.	12B-</J	.	.	.	.	.	.	.	.	.	.
=7	=7	=7	=7	=7	=7	=7	=7	=7	=7	=7	=7	=7
!	!LO:TX:a:i:t=P:problem=mixed beam	!	!LO:DY:a	!	!	!	!LO:DY:a	!	!	!	!	!
[1EE-/	4c/	12c\L	<	8e-/	u-	.	<	8cc/	8a-\	Ja-	.	.
.	.	12E-</	.	.	.	.	.	.	.	.	.	.
.	.	.	.	8e-/	-fa-	.	.	8cc/	8a-\	-każ	.	.
.	.	12A-</J	.	.	.	.	.	.	.	.	.	.
!	!LO:TX:a:i:t=P:problem=mixed beam	!	!	!	!	!	!	!	!	!	!	!
.	4e-/	12e-\L	.	[4e-/	-ją-	.	.	[4ee-/	[4cc\	wiel-	.	.
.	.	12A-</	.	.	.	.	.	.	.	.	.	.
.	.	12c</J	.	.	.	.	.	.	.	.	.	.
!	!LO:TX:a:i:t=P:problem=mixed beam	!	!	!	!	!	!	!	!	!	!	!
.	4a-/	12a-\L	.	8e-/]	.	.	.	8ee-/]	8cc\]	.	.	.
.	.	12c\	.	.	.	.	.	.	.	.	.	.
.	.	.	.	8e-/	-ce	.	[	8cc/	8a-\	-ka	.	.
.	.	12e-\J	.	.	.	.	.	.	.	.	.	.
!	!LO:TX:a:i:t=P:problem=mixed beam	!	!	!	!	!	!	!	!	!	!	!
.	4c/	12c\L	[	8e-/	w Two-	.	.	8b-/	8g\	bos-	.	.
.	.	12E-</	.	.	.	.	.	.	.	.	.	.
.	.	.	.	8e-/	-je	.	.	8a-/	8f\	-ka	.	.
.	.	12A-</J	.	.	.	.	.	.	.	.	.	.
=8	=8	=8	=8	=8	=8	=8	=8	=8	=8	=8	=8	=8
!	!LO:TX:a:i:t=P:problem=mixed beam	!	!LO:DY:a	!	!	!	!LO:DY:a	!	!	!	!	!
2EE-/_	4e-/	12e-\L	>	[2e-/	moc.	.	>	[2b-/	[2g\	noc	.	.
.	.	12G</	.	.	.	.	.	.	.	.	.	.
.	.	12B-</J	.	.	.	.	.	.	.	.	.	.
!	!LO:TX:a:i:t=P:problem=mixed beam	!	!	!	!	!	!	!	!	!	!	!
.	2ryy	12e-\L	]	.	.	.	.	.	.	.	.	.
.	.	12g\	.	.	.	.	.	.	.	.	.	.
.	.	12B-</J	.	.	.	.	.	.	.	.	.	.
8EE-/]	.	8e-\	.	8e-/]	.	.	.	8b-/]	8g\]	.	.	.
8r	.	8r	.	8r	.	.	]	8r	8r	.	.	.
4r	4g/	4e-\	.	4r	.	.	.	8g/	8e-\	-Spoj-	O-	.
.	.	.	.	.	.	.	.	8g/	8e-\	-rzyj	-bróć	.
*	*v	*v	*	*	*	*	*	*	*	*	*	*
!!LO:LB:g=original
=9	=9	=9	=9	=9	=9	=9	=9	=9	=9	=9	=9
*xywh-#2:180,3170,2826,747	*xywh-#2:180,3170,2826,747	*	*xywh-#2:182,2881,2775,399	*	*	*	*xywh-#2:204,2550,2809,399	*xywh-#2:204,2550,2809,399	*	*	*
[2AA-/ [2AAA-/	12r	.	4r	.	.	.	4cc/	4a-\	Bo-	o-	.
.	12c/L	.	.	.	.	.	.	.	.	.	.
!	!	!LO:HP:b	!	!	!	!	!	!	!	!	!
.	12e-/	<	.	.	.	.	.	.	.	.	.
!	!	!	!LO:TX:a:i:t=marc	!	!	!	!	!	!	!	!LO:DY:a
.	12g/	.	8c/	Spoj-	O-	.	2cc/	2a-\	-że	-ko	<
.	12cc/	.	.	.	.	.	.	.	.	.	.
.	.	.	8g/	-rzyj	-bróć	.	.	.	.	.	.
.	[12c/J	.	.	.	.	.	.	.	.	.	.
4AA-/] 4AAA-/]	4f/ 4c/]	.	4f/	Bo-	o-	.	.	.	.	.	.
4FF/ 4FFF/	4a-/ 4c/	[	[4f/	-że	-ko	.	8cc/	8a-\	na	w na-	.
.	.	.	.	.	.	.	8ee-/	8cc\	swe	-szą	[
=10	=10	=10	=10	=10	=10	=10	=10	=10	=10	=10	=10
*	*^	*	*	*	*	*	*	*	*	*	*
*	*	*xywh-#2:180,3170,2826,747	*	*	*	*	*	*	*	*	*	*
!	!	!	!LO:HP:b	!	!	!	!	!	!	!	!	!LO:DY:a
2.GG/ 2.GGG/	12r	2.ryy	<	4f/]	.	.	.	4dd/	4b-\	dzie-	stro-	<
.	12d/L	.	.	.	.	.	.	.	.	.	.	.
.	12f/J	.	.	.	.	.	.	.	.	.	.	.
!	!	!	!	!	!	!	!LO:HP:a	!	!	!	!	!
.	12a-/L	.	.	8d/	na	w na-	<	2dd/	2b-\	-cię	-nę,	.
.	12dd/	.	.	.	.	.	.	.	.	.	.	.
.	.	.	.	8a-/	swe	-szą	.	.	.	.	.	.
.	[12d/J	.	.	.	.	.	.	.	.	.	.	.
.	4g/ 4d/]	.	.	4g/	dzie-	stro-	.	.	.	.	.	.
[4C/ [4CC/	4e-/	12e-\L	.	8g/	-cię	-nę	.	8ee-/	8b-\	Daj	Daj	.
.	.	12g\	.	.	.	.	.	.	.	.	.	.
.	.	.	.	8f/	Daj	Daj	.	8dd/	8b-\	mi	nam	.
.	.	12G\J	.	.	.	.	.	.	.	.	.	.
=11	=11	=11	=11	=11	=11	=11	=11	=11	=11	=11	=11	=11
4C/] 4CC/]	4e-/	12e-\L	.	4e-/	Pa-	Bo-	.	4cc/	4b-\	Pa-	Bo-	.
.	.	12g\	.	.	.	.	.	.	.	.	.	.
.	.	12G\J	.	.	.	.	.	.	.	.	.	.
4C/ 4CC/	4e-/	12e-\L	.	4g/	-nie	-że	.	4ee-/	4b-\	-nie,	-że	.
.	.	12g\	.	.	.	.	.	.	.	.	.	.
.	.	12G\J	.	.	.	.	.	.	.	.	.	.
!	!	!	!	!	!	!	!LO:DY:a	!	!	!	!	!LO:DY:a
2FF/ 2FFF/	4d/	12d\L	>	4f/	do-	do-	>	4dd/	4an\	do-	do-	>
.	.	12f\	.	.	.	.	.	.	.	.	.	.
.	.	12An\J	.	.	.	.	.	.	.	.	.	.
.	4c/	12c\L	.	4e-/	-brą	-brą	.	4cc/	4a\	-bra	-brą	.
.	.	12d\	.	.	.	.	.	.	.	.	.	.
.	.	12A\J	.	.	.	.	.	.	.	.	.	.
=12	=12	=12	=12	=12	=12	=12	=12	=12	=12	=12	=12	=12
!	!LO:TX:a:i:t=P:problem=mixed beam	!	!	!	!	!	!	!	!	!	!	!
2.GG/ 2.GGG/	4B-/	12B-\L	]	2.d/	noc,	noc,	.	2.b-/	2.b-\	noc,	noc,	.
.	.	12d\	.	.	.	.	.	.	.	.	.	.
.	.	12D</J	.	.	.	.	.	.	.	.	.	.
!	!LO:TX:a:i:t=P:problem=mixed beam	!	!	!	!	!	!	!	!	!	!	!
.	4g/	12g\L	.	.	.	.	.	.	.	.	.	.
.	.	12B-</	.	.	.	.	.	.	.	.	.	.
.	.	12G</J	.	.	.	.	.	.	.	.	.	.
!	!LO:TX:a:i:t=P:problem=mixed beam	!	!	!	!	!	!	!	!	!	!	!
.	4f/	12f\L	.	.	.	.	.	.	.	.	.	.
.	.	12B-</	.	.	.	.	.	.	.	.	.	.
.	.	12G</J	.	.	.	.	.	.	.	.	.	.
!	!LO:TX:a:i:t=P:problem=mixed beam	!	!	!	!	!	!	!	!	!	!	!
[4GG/ [4GGG/	4e-/	12e-\L	.	8g/	daj	Daj	] p	8b-/	8g\	daj	Daj	] p
.	.	12B-</	.	.	.	.	.	.	.	.	.	.
.	.	.	.	8e-/	mi	nam	.	8cc/	8an\	mi	nam	.
.	.	12G</J	.	.	.	.	.	.	.	.	.	.
!!LO:PB:g=original
=13	=13	=13	=13	=13	=13	=13	=13	=13	=13	=13	=13	=13
*xywh-#3:271,1713,5487,1285	*xywh-#3:271,1713,5487,1285	*xywh-#3:271,1713,5487,1285	*	*xywh-#3:392,1107,5256,788	*	*	*	*xywh-#3:388,352,5385,945	*xywh-#3:388,352,5385,945	*	*	*
!	!LO:TX:a:i:t=P:problem=mixed beam	!	!	!	!	!	!	!	!	!	!	!LO:DY:a
4GG/] 4GGG/]	4d/	12d\L	.	4d/	Pa-	Bo-	.	4dd/	4b-\	Pa-	Bo-	>
.	.	12D</	.	.	.	.	.	.	.	.	.	.
.	.	12G</J	.	.	.	.	.	.	.	.	.	.
!	!LO:TX:a:i:t=P:problem=mixed beam	!	!	!	!	!	!LO:DY:a	!	!	!	!	!
2DD/ 2DDD/	4B-/	12B-\L	.	2d/	-nie	-że	>	4dd/	4b-\	-nie	-że	.
.	.	12d\	.	.	.	.	.	.	.	.	.	.
.	.	12D</J	.	.	.	.	.	.	.	.	.	.
!	!LO:TX:a:i:t=P:problem=mixed beam	!	!	!	!	!	!	!	!	!	!	!
.	4An/	12An\L	>	.	.	.	.	4dd/	4an\	do-	do-	.
.	.	12d\	.	.	.	.	.	.	.	.	.	.
.	.	12D\J	.	.	.	.	.	.	.	.	.	.
!	!LO:TX:a:i:t=P:problem=mixed beam	!	!	!	!	!	!	!	!	!	!	!
4DD/ 4DDD/	4c/	12c\L	.	8en/	do-	do-	.	4dd/	4cc\	-brą	-bra	.
.	.	12d\	.	.	.	.	.	.	.	.	.	.
.	.	.	.	8f#X/	-brą	-brą	.	.	.	.	.	.
.	.	12D</J	.	.	.	.	.	.	.	.	.	.
=14	=14	=14	=14	=14	=14	=14	=14	=14	=14	=14	=14	=14
!	!LO:TX:a:i:t=P:problem=mixed beam	!	!	!	!	!	!	!	!	!	!	!
1GG/ 1GGG/	4Bn/	12Bn\L	.	[2g/	noc.	noc!	.	[2dd/	[2bn\	noc	noc!	.
.	.	12D</	.	.	.	.	.	.	.	.	.	.
.	.	12G</J	.	.	.	.	.	.	.	.	.	.
!	!LO:TX:a:i:t=P:problem=mixed beam	!	!	!	!	!	!	!	!	!	!	!
.	2.ryy	12Bn</L	.	.	.	.	.	.	.	.	.	.
.	.	12d\	.	.	.	.	.	.	.	.	.	.
.	.	12g\J	.	.	.	.	.	.	.	.	.	.
!	!LO:TX:a:i:t=P:problem=mixed beam	!	!	!	!	!	!	!	!	!	!	!
.	.	12d\L	.	8g/]	.	.	.	8dd/]	8b\]	.	.	.
.	.	12B</	.	.	.	.	.	.	.	.	.	.
.	.	.	.	8r	.	.	.	8r	8ryy	.	.	.
.	.	12G</J	.	.	.	.	.	.	.	.	.	.
!	!LO:TX:a:i:t=P:problem=mixed beam	!	!	!	!	!	!	!	!	!	!	!
.	.	12B</L	.	4r	.	.	.	4r	4ryy	.	.	.
.	.	12d\	.	.	.	.	.	.	.	.	.	.
.	.	12D</J	.	.	.	.	.	.	.	.	.	.
=15	=15	=15	=15	=15	=15	=15	=15	=15	=15	=15	=15	=15
*	*	*	*below	*	*	*	*	*	*	*	*	*
!	!	!	!LO:DY:b	!	!	!	!	!	!	!	!	!
1GG/ 1GGG/	4ryy	12r	p	4r	.	.	p	4r	4ryy	.	.	.
.	.	12G</L	.	.	.	.	.	.	.	.	.	.
.	.	12B-X</J	.	.	.	.	.	.	.	.	.	.
!	!LO:TX:a:i:t=P:problem=mixed beam	!	!	!	!	!	!	!	!	!	!	!LO:DY:b
.	4d/	12d\L	.	8g/	Świeć-	.	.	8dd\	8b-X\	Świeć-	.	p
.	.	12G</	.	.	.	.	.	.	.	.	.	.
!	!	!	!	!	!	!	!LO:DY:a	!	!	!	!	!
.	.	.	.	8g/	-cie	.	<	8dd\	8b-\	-cie	.	.
.	.	12B-</J	<	.	.	.	.	.	.	.	.	.
!	!LO:TX:a:i:t=P:problem=mixed beam	!	!	!	!	!	!	!	!	!	!	!
.	4f#X/	12f#\L	.	4f#X/	gwiaz-	.	.	4ee-/	4cc\	gwiaz-	.	.
.	.	12A-</	.	.	.	.	.	.	.	.	.	.
.	.	12e-\J	[	.	.	.	.	.	.	.	.	.
!	!	!	!	!	!	!	!LO:DY:a	!	!	!	!	!
.	4an/	12a\L	>	4an/	-dki	.	[ > ]]	4dd/	4cc\	-dki,	.	.
.	.	12c\	.	.	.	.	.	.	.	.	.	.
.	.	12d\J	.	.	.	.	.	.	.	.	.	.
=16	=16	=16	=16	=16	=16	=16	=16	=16	=16	=16	=16	=16
!	!LO:TX:a:i:t=P:problem=mixed beam	!	!	!	!	!	!	!	!	!	!	!
1GG/ 1GGG/	4b-/	12b-\L	] <	4r	.	.	.	4r	4r	.	.	.
.	.	12G</	.	.	.	.	.	.	.	.	.	.
.	.	12B-</J	.	.	.	.	.	.	.	.	.	.
!	!LO:TX:a:i:t=P:problem=mixed beam	!	!	!	!	!	!LO:DY:a	!	!	!	!	!
.	4d/	12d\L	.	8g/	jak	.	<	8dd/	8b-\	jak	.	.
.	.	12G</	.	.	.	.	.	.	.	.	.	.
.	.	.	.	8g/	na	.	.	8dd/	8b-\	świe	.	.
.	.	12B-</J	.	.	.	.	.	.	.	.	.	.
!	!LO:TX:a:i:t=P:problem=mixed beam	!	!	!	!	!	!	!	!	!	!	!
.	4f#X/	12f#\L	[ >	4f#X/	stra-	.	.	4ee-/	4cc\	ci	.	.
.	.	12A-</	.	.	.	.	.	.	.	.	.	.
.	.	12e-\J	.	.	.	.	.	.	.	.	.	.
!	!	!	!	!	!	!	!LO:DY:a	!	!	!	!	!
.	4an/	12an\L	.	4an/	-ży	.	[ > ]]	4dd/	4cc\	cie	.	.
.	.	12c\	.	.	.	.	.	.	.	.	.	.
.	.	12d\J	.	.	.	.	.	.	.	.	.	.
*	*	*	*	*	*	*	*	*v	*v	*	*	*
!!LO:LB:g=original
=17	=17	=17	=17	=17	=17	=17	=17	=17	=17	=17	=17
*xywh-#3:217,3964,5467,1339	*xywh-#3:217,3964,5467,1339	*xywh-#3:217,3964,5467,1339	*	*xywh-#3:222,3363,5473,897	*	*	*	*xywh-#3:253,2813,5514,788	*	*	*
*	*	*tuplet	*	*	*	*	*	*	*	*	*
!	!	!	!	!LO:TX:a:i:t=espr.	!	!	!	!	!	!	!
4GG/ 4GGG/	4b-/	12b-\L	]	4.g/	O-	.	.	4.dd\ 4.b-\	o	.	.
.	.	12B-\	.	.	.	.	.	.	.	.	.
!	!LO:TX:a:i:t=espr.	!	!	!	!	!	!	!	!	!	!
.	.	12d\J	.	.	.	.	.	.	.	.	.
*	*	*Xtuplet	*	*	*	*	*	*	*	*	*
!LO:TX:a:i:t=espr.	!	!	!	!	!	!	!	!	!	!	!
4BB-/ 4BBB-/	6g/	12g\L	.	.	.	.	.	.	.	.	.
.	.	12d\	.	.	.	.	.	.	.	.	.
.	.	.	.	8g/	-bja-	.	.	8cc\ 8an\	cu-	.	.
.	12cc/	12an\J	.	.	.	.	.	.	.	.	.
*	*	*tuplet	*	*	*	*	*	*	*	*	*
4E-/ 4EE-/	4b-/	12b-\L 12g\	.	8g/	-wiaj-	.	.	8b-\ 8g\	-do-	.	.
.	.	12d\	.	.	.	.	.	.	.	.	.
.	.	.	.	8g/	-cie	.	.	8b-\ 8g\	-wna	.	.
.	.	12g\J	.	.	.	.	.	.	.	.	.
*	*	*Xtuplet	*	*	*	*	*	*	*	*	*
4AAn/ 4AAAn/	6cc/	12an\L	.	8fn/	bo-	.	.	8cc\ 8an\	bos-	.	.
.	.	12c\	.	.	.	.	.	.	.	.	.
.	.	.	.	8e-/	-ską	.	.	8cc\ 8g\	-ka	.	.
.	12g/	12e-\J	.	.	.	.	.	.	.	.	.
=18	=18	=18	=18	=18	=18	=18	=18	=18	=18	=18	=18
*	*	*	*	*	*	*	*	*^	*	*	*
*	*	*	*	*	*	*	*	*xywh-#3:253,2813,5514,788	*xywh-#3:253,2813,5514,788	*	*	*
2.D/ 2.DD/	4f#X/	12d\L	.	2.d/	moc!	.	.	2.an/	2.f#X\	moc!	.	.
.	.	12An\	.	.	.	.	.	.	.	.	.	.
.	.	12d\J	.	.	.	.	.	.	.	.	.	.
.	2.ryy	12f#\L	.	.	.	.	.	.	.	.	.	.
.	.	12d\	.	.	.	.	.	.	.	.	.	.
.	.	12an\J	.	.	.	.	.	.	.	.	.	.
.	.	12f#/L	.	.	.	.	.	.	.	.	.	.
.	.	12c/	.	.	.	.	.	.	.	.	.	.
.	.	12A/J	.	.	.	.	.	.	.	.	.	.
4GG/ 4GGG/	.	12B-/L	.	8g/	Niech	.	.	8b-/	8g\	Spoj-	.	.
.	.	12d/	.	.	.	.	.	.	.	.	.	.
.	.	.	.	8g/	się	.	.	8b-/	8g\	-rzyj	.	.
.	.	12g/J	.	.	.	.	.	.	.	.	.	.
=19	=19	=19	=19	=19	=19	=19	=19	=19	=19	=19	=19	=19
!	!	!	!LO:DY:a	!	!	!	!LO:DY:a	!	!	!	!	!
1BB-/ 1BBB-/	4fn/	12fn\L	p	4.f/	złe-	.	p	4.b-/	4.a-X\	Bo-	.	.
.	.	12A-X\	.	.	.	.	.	.	.	.	.	.
.	.	12B-\J	.	.	.	.	.	.	.	.	.	.
.	4d/	12d\L	.	.	.	.	.	.	.	.	.	.
.	.	12A-\	.	.	.	.	.	.	.	.	.	.
.	.	.	.	8f/	-go	.	.	8b-/	8a-\	-że	.	.
.	.	12B-\J	.	.	.	.	.	.	.	.	.	.
.	4f/	12f\L	.	4d/	mi	.	.	4cc/	4a-\	na	.	.
.	.	12A-\	.	.	.	.	.	.	.	.	.	.
.	.	12B-\J	.	.	.	.	.	.	.	.	.	.
.	4d/	12d\L	.	4f/	nie	.	.	4b-/	4a-\	swe	.	.
.	.	12A-\	.	.	.	.	.	.	.	.	.	.
.	.	12B-\J	.	.	.	.	.	.	.	.	.	.
=20	=20	=20	=20	=20	=20	=20	=20	=20	=20	=20	=20	=20
1BB-/ 1BBB-/	4g/	12g\L 12e-\	.	4e-/	zda-	.	.	4ee-/	4g\	dzie-	.	.
.	.	12E-\	.	.	.	.	.	.	.	.	.	.
.	.	12G\J	.	.	.	.	.	.	.	.	.	.
!	!LO:TX:a:i:t=P:problem=mixed beam	!	!	!	!	!	!	!	!	!	!	!
.	4B-/	12B-\L	.	2e-/	-rzy	.	.	2b-/	2g\	-cię	.	.
.	.	12G</	.	.	.	.	.	.	.	.	.	.
.	.	12B-</J	.	.	.	.	.	.	.	.	.	.
.	4ryy	12e-/L	.	.	.	.	.	.	.	.	.	.
.	.	12B-/	.	.	.	.	.	.	.	.	.	.
.	.	12e-/J	.	.	.	.	.	.	.	.	.	.
.	6g/	12g\L	.	8e-/	o	.	.	8g/	8e-\	Daj	.	.
.	.	12B-\	.	.	.	.	.	.	.	.	.	.
.	.	.	.	8c/	gwiaz-	.	.	8a-/	8e-\	mi	.	.
.	12a-/	12f\J	.	.	.	.	.	.	.	.	.	.
!!LO:LB:g=original
=21	=21	=21	=21	=21	=21	=21	=21	=21	=21	=21	=21	=21
*xywh-#3:142,6281,5569,1407	*xywh-#3:142,6281,5569,1407	*xywh-#3:142,6281,5569,1407	*	*xywh-#3:215,5648,5446,904	*	*	*	*xywh-#3:287,5118,5405,897	*xywh-#3:287,5118,5405,897	*	*	*
!	!	!	!	!	!	!	!LO:DY:a	!	!	!	!	!
1BB-/ 1BBB-/	4b-/	12g\L	.	[2B-/	-decz-	.	<	[2b-/	[2g\	Pa-	.	.
.	.	12B-\	.	.	.	.	.	.	.	.	.	.
*	*	*	*^	*	*	*	*	*	*	*	*	*
!	!	!	!LO:HP:a	!	!	!	!	!	!	!	!	!	!
.	.	12e-\J	<	.	.	.	.	.	.	.	.	.	.
!	!	!	!	!LO:HP:b	!	!	!	!	!	!	!	!	!
.	4g/	12g\L	.	<	.	.	.	.	.	.	.	.	.
.	.	12G\	.	.	.	.	.	.	.	.	.	.	.
.	.	12B-\J	.	.	.	.	.	.	.	.	.	.	.
.	4e-/	12e-\L	.	.	8B-/]	.	.	.	8b-/]	8g\]	.	.	.
.	.	12G\	.	.	.	.	.	.	.	.	.	.	.
.	.	.	.	.	8B-/	-ki,	.	[	8b-/	8g\	-nie	.	.
.	.	12B-\J	.	.	.	.	.	.	.	.	.	.	.
.	4f/	12f\L	[	.	8c/	do-	.	.	8b-/	8a-\	do-	.	.
.	.	12A-\	.	[	.	.	.	.	.	.	.	.	.
!	!	!	!	!	!	!	!	!LO:DY:a	!	!	!	!	!
*	*	*	*v	*v	*	*	*	*	*	*	*	*	*
.	.	.	.	8d/	-bra	.	>	8b-/	8a-\	-brą	.	.
!	!	!	!LO:HP:b	!	!	!	!	!	!	!	!	!
.	.	12d\J	>	.	.	.	.	.	.	.	.	.
=22	=22	=22	=22	=22	=22	=22	=22	=22	=22	=22	=22	=22
!	!LO:TX:a:i:t=P:problem=mixed beam	!	!	!	!	!	!	!	!	!	!	!
1EE-/	4e-/	12e-\L	.	2.e-/	noc!	.	.	2.b-/	2.g\	noc	.	.
.	.	12E-</	.	.	.	.	.	.	.	.	.	.
.	.	12G</J	.	.	.	.	.	.	.	.	.	.
.	4ryy	12B-</L	]	.	.	.	.	.	.	.	.	.
.	.	12G</	]	.	.	.	.	.	.	.	.	.
.	.	12B-</J	.	.	.	.	.	.	.	.	.	.
!	!LO:TX:a:i:t=P:problem=mixed beam	!	!	!	!	!	!	!	!	!	!	!
.	4e-/	12e-\L	.	.	.	.	.	.	.	.	.	.
.	.	12G</	.	.	.	.	.	.	.	.	.	.
.	.	12B-</J	.	.	.	.	.	.	.	.	.	.
*	*	*tuplet	*	*	*	*	*	*	*	*	*	*
!	!LO:TX:a:i:t=P:problem=mixed beam	!	!	!	!	!	!	!	!	!	!	!LO:DY:b
.	6e-/	12e-\L	.	8e-/	Niech	.	] p	8ee-/	8g\	Spoj-	.	p
.	.	12G</	.	.	.	.	.	.	.	.	.	.
.	.	.	.	8e-/	się	.	.	8dd/	8b-\	-rzyj	.	.
.	12d/	12B-\J	.	.	.	.	.	.	.	.	.	.
=23	=23	=23	=23	=23	=23	=23	=23	=23	=23	=23	=23	=23
*	*	*Xtuplet	*	*	*	*	*	*	*	*	*	*
!	!LO:TX:a:i:t=P:problem=mixed beam	!	!LO:HP:a	!	!	!	!LO:DY:a	!	!	!	!	!
1EE-/	4c/	12A-\L	<	8e-/	złe-	.	<	8cc/	8a-\	Bo-	.	.
.	.	12E-</	.	.	.	.	.	.	.	.	.	.
.	.	.	.	8e-/	-go	.	.	8cc/	8a-\	-że	.	.
.	.	12A-</J	.	.	.	.	.	.	.	.	.	.
!	!LO:TX:a:i:t=P:problem=mixed beam	!	!	!	!	!	!	!	!	!	!	!
.	4e-/	12e-\L	.	[2e-/	mi	.	.	[2ee-/	[2cc\	na	.	.
.	.	12A-</	.	.	.	.	.	.	.	.	.	.
.	.	12c</J	.	.	.	.	.	.	.	.	.	.
!	!LO:TX:a:i:t=P:problem=mixed beam	!	!	!	!	!	!	!	!	!	!	!
.	4a-/	12a-\L	[	.	.	.	.	.	.	.	.	.
.	.	12c</	.	.	.	.	.	.	.	.	.	.
.	.	12e-\J	.	.	.	.	.	.	.	.	.	.
!	!LO:TX:a:i:t=P:problem=mixed beam	!	!	!	!	!	!	!	!	!	!	!
.	4c/	12c\L	.	8e-/]	.	.	[	8ee-/]	8cc\]	.	.	.
.	.	12E-</	.	.	.	.	.	.	.	.	.	.
.	.	.	.	8e-/	nie	.	.	8cc/	8a-\	swe	.	.
.	.	12A-</J	.	.	.	.	.	.	.	.	.	.
!!LO:PB:g=original
=24	=24	=24	=24	=24	=24	=24	=24	=24	=24	=24	=24	=24
*xywh-#4:200,844,2791,658	*xywh-#4:200,844,2791,658	*xywh-#4:200,844,2791,658	*	*xywh-#4:177,538,2788,437	*	*	*	*xywh-#4:216,166,2771,505	*xywh-#4:216,166,2771,505	*	*	*
!	!LO:TX:a:i:t=P:problem=mixed beam	!	!	!	!	!	!	!	!	!	!	!
1EE-/	4B-/	12B-\L	.	2e-/	dzie-	zda-	.	2b-/	2g\	dzie-	zda-	.
.	.	12E-</	.	.	.	.	.	.	.	.	.	.
.	.	12G</J	.	.	.	.	.	.	.	.	.	.
.	4ryy	12B-</L	.	.	.	.	.	.	.	.	.	.
.	.	12G</	.	.	.	.	.	.	.	.	.	.
.	.	12B-</J	.	.	.	.	.	.	.	.	.	.
.	4e-/	12e-\L	.	4e-/	-cię	-rzy	.	4b-/	4g\	-cię	-rzy	.
.	.	12G</	.	.	.	.	.	.	.	.	.	.
.	.	12B-</J	.	.	.	.	.	.	.	.	.	.
*	*	*tuplet	*	*	*	*	*	*	*	*	*	*
!	!LO:TX:a:i:t=P:problem=mixed beam	!	!	!	!	!	!	!	!	!	!	!LO:DY:b
.	6g/	12e-\L	.	8e-/	Daj-	o	p	8g/	8e-\	Daj	o	p
.	.	12B-</	.	.	.	.	.	.	.	.	.	.
.	.	.	.	8c/	-mi	gwiaz-	.	8a-/	8e-\	mi	gwiaz-	.
.	12a-/	12f\J	.	.	.	.	.	.	.	.	.	.
=25	=25	=25	=25	=25	=25	=25	=25	=25	=25	=25	=25	=25
*	*	*Xtuplet	*	*	*	*	*	*	*	*	*	*
!	!LO:TX:a:i:t=P:problem=mixed beam	!	!	!	!	!	!	!	!	!	!	!
1BB-/ 1BBB-/	4b-/	12g\L	.	2B-/	Pa-	-decz-	.	4.b-/	4.g\	Pa-	-decz-	.
.	.	12G</	.	.	.	.	.	.	.	.	.	>
!	!	!	!	!	!	!	!LO:HP:b	!	!	!	!	!
.	.	12B-</J	.	.	.	.	>	.	.	.	.	.
!	!LO:TX:a:i:t=P:problem=mixed beam	!	!	!	!	!	!	!	!	!	!	!
.	4e-/	12e-\L	.	.	.	.	.	.	.	.	.	.
.	.	12G</	.	.	.	.	.	.	.	.	.	.
.	.	.	.	.	.	.	.	8b-/	8g\	-nie	-ki	.
.	.	12B-</J	.	.	.	.	.	.	.	.	.	.
!	!LO:TX:a:i:t=P:problem=mixed beam	!	!	!	!	!	!	!	!	!	!	!
.	4d/	12d\L	.	4B-/	-nie	-ki	.	4b-/	4f\	do-	do-	.
.	.	12A-</	.	.	.	.	.	.	.	.	.	.
.	.	12B-</J	.	.	.	.	.	.	.	.	.	.
!	!LO:TX:a:i:t=P:problem=mixed beam	!	!	!	!	!	!	!	!	!	!	!
.	4f/	12f\L	.	8c/	do-	do-	.	4b-/	4a-\	-brą	-bra	.
.	.	12A-</	.	.	.	.	.	.	.	.	.	.
.	.	.	.	8d/	-brą	-bra	.	.	.	.	.	.
.	.	12B-</J	.	.	.	.	.	.	.	.	.	.
=26	=26	=26	=26	=26	=26	=26	=26	=26	=26	=26	=26	=26
!	!	!	!	!	!	!	!LO:DY:a	!	!	!	!	!LO:DY:a
[1EE-/	4e-/	12e-\L 12G</	.	[>2e-/	noc.	noc!	pp	[2b-/	[2g\	noc.	noc!	pp
.	.	12E-</	.	.	.	.	.	.	.	.	.	.
.	.	12G</J	.	.	.	.	.	.	.	.	.	.
!	!LO:TX:a:i:t=P:problem=mixed beam	!	!	!	!	!	!	!	!	!	!	!
.	(4B-/	12B-\L	.	.	.	.	.	.	.	.	.	.
.	.	12E-</	.	.	.	.	.	.	.	.	.	.
.	.	12G</J	.	.	.	.	.	.	.	.	.	.
!	!LO:TX:a:i:t=P:problem=mixed beam	!	!	!	!	!	!	!	!	!	!	!
.	4c/	12c\L	.	8e-/]	.	.	.	8b-/]	8g\]	.	.	.
.	.	12E-</	.	.	.	.	.	.	.	.	.	.
.	.	.	.	8r	.	.	.	8r	8r	.	.	.
.	.	12G</J	.	.	.	.	.	.	.	.	.	.
!	!LO:TX:a:i:t=P:problem=mixed beam	!	!	!	!	!	!	!	!	!	!	!
.	4B-/	12B-\L	.	4r	.	.	.	4r	4r	.	.	.
.	.	12E-</	.	.	.	.	.	.	.	.	.	.
.	.	12G</J	.	.	.	.	.	.	.	.	.	.
*	*	*	*	*	*	*	*	*v	*v	*	*	*
=27	=27	=27	=27	=27	=27	=27	=27	=27	=27	=27	=27
!	!LO:TX:a:i:t=P:problem=mixed beam	!	!	!	!	!	!	!	!	!	!
1EE-/]	4e-/)	12e-\L	.	1r	.	.	.	1r	.	.	.
!	!	!	!LO:HP:a	!	!	!	!	!	!	!	!
.	.	12F</	<	.	.	.	.	.	.	.	.
.	.	12A-</J	.	.	.	.	.	.	.	.	.
!	!LO:TX:a:i:t=P:problem=mixed beam	!	!	!	!	!	!	!	!	!	!
.	4d/	12d\L	.	.	.	.	.	.	.	.	.
.	.	12F</	.	.	.	.	.	.	.	.	.
.	.	12A-</J	.	.	.	.	.	.	.	.	.
!	!LO:TX:a:i:t=P:problem=mixed beam	!	!	!	!	!	!	!	!	!	!
.	4g/	12g\L	.	.	.	.	.	.	.	.	.
.	.	12A-</	.	.	.	.	.	.	.	.	.
.	.	12d</J	.	.	.	.	.	.	.	.	.
!	!LO:TX:a:i:t=P:problem=mixed beam	!	!	!	!	!	!	!	!	!	!
.	4f/	12f\L	.	.	.	.	.	.	.	.	.
.	.	12A-</	.	.	.	.	.	.	.	.	.
.	.	12d\J	.	.	.	.	.	.	.	.	.
!!LO:LB:g=original
=28	=28	=28	=28	=28	=28	=28	=28	=28	=28	=28	=28
*xywh-#4:132,1985,2276,685	*xywh-#4:132,1985,2276,685	*xywh-#4:132,1985,2276,685	*	*xywh-#4:215,1663,2086,335	*	*	*	*xywh-#4:229,1354,1998,386	*	*	*
!	!LO:TX:a:i:t=P:problem=mixed beam	!	!	!	!	!	!	!	!	!	!
[1EE-/	4e-/	12e-\L	.	1r	.	.	.	1r	.	.	.
.	.	12G</	.	.	.	.	.	.	.	.	.
.	.	12B-</J	.	.	.	.	.	.	.	.	.
!	!LO:TX:a:i:t=P:problem=mixed beam	!	!	!	!	!	!	!	!	!	!
.	4c/	12c\L	.	.	.	.	.	.	.	.	.
.	.	12E-</	.	.	.	.	.	.	.	.	.
.	.	12A-</J	.	.	.	.	.	.	.	.	.
!	!LO:TX:a:i:t=P:problem=mixed beam	!	!	!	!	!	!	!	!	!	!
.	4B-/	12B-\L	.	.	.	.	.	.	.	.	.
.	.	12E-</	.	.	.	.	.	.	.	.	.
.	.	12G</J	.	.	.	.	.	.	.	.	.
!	!LO:TX:a:i:t=P:problem=mixed beam	!	!	!	!	!	!	!	!	!	!
.	4c/	12c\L	.	.	.	.	.	.	.	.	.
.	.	12E-</	.	.	.	.	.	.	.	.	.
.	.	12A-</J	.	.	.	.	.	.	.	.	.
*	*v	*v	*	*	*	*	*	*	*	*	*
=29	=29	=29	=29	=29	=29	=29	=29	=29	=29	=29
!	!LO:TX:a:i:t=P:problem=mixed beam	!	!	!	!	!	!	!	!	!
1EE-/_	12B-\L	.	1r	.	.	.	1r	.	.	.
.	12E-</	.	.	.	.	.	.	.	.	.
!	!	!LO:DY:a	!	!	!	!	!	!	!	!
.	12G</J	>	.	.	.	.	.	.	.	.
.	12B-</L	.	.	.	.	.	.	.	.	.
.	12G</	.	.	.	.	.	.	.	.	.
.	12B-</J	.	.	.	.	.	.	.	.	.
!	!LO:TX:a:i:t=P:problem=mixed beam	!	!	!	!	!	!	!	!	!
.	12e-\L	.	.	.	.	.	.	.	.	.
.	12B-</	.	.	.	.	.	.	.	.	.
.	12g\J	.	.	.	.	.	.	.	.	.
!	!LO:TX:a:i:t=P:problem=mixed beam	!	!	!	!	!	!	!	!	!
.	12e-\L	.	.	.	.	.	.	.	.	.
.	12B-</	.	.	.	.	.	.	.	.	.
.	12G</J	.	.	.	.	.	.	.	.	.
!	!	!	!	!	!	!	!LO:TX:a:t=[segno]	!	!	!
=30||	=30||	=30||	=30||	=30||	=30||	=30||	=30||	=30||	=30||	=30||
*>C	*	*	*	*	*	*	*	*	*	*
4EE-\]	4E-</	.	1r	.	.	.	1r	.	.	.
4r	4r	pp	.	.	.	.	.	.	.	.
2E-\ 2EE-\	2e-/ 2B-/ 2G;/	.	.	.	.	.	.	.	.	.
==	==	==	==	==	==	==	==	==	==	==
*-	*-	*-	*-	*-	*-	*-	*-	*-	*-	*-
!!!system-decoration: [(s1,s2)][(s3,s4)]
!!!RDF**kern: > = above
!!!RDF**kern: < = below
!!!RDF**dynam: > = dim
!!!RDF**dynam: < = cresc
!!!RDF**dynam: pp = pp.
!!!ENC: Berenika Jozajtis
!!!END: 2022-02-17
!!!ENC: Leszek Kubiak
!!!END: 2022-02-18
!!!ENC-iiif: Antoni Szymański
!!!END-iiif: 2022-09-04
!!!YEC: Copyright 2022 Narodowy Instytut Fryderyka Chopina (https://polishscores.org)
!!!YEM: License CC-BY-4.0 (https://creativecommons.org/licenses/by/4.0)
!!!IIIF: https://polona.pl/iiif/item/NjYxODg3OTc/manifest.json
